svg/brands/kakaotalk-square.svg

<svg width="448" height="512" viewBox="0 0 448 512" version="1.1" xmlns="http://www.w3.org/2000/svg"><path fill="currentColor" d="M400,480l-352,0c-26.51,0 -48,-21.49 -48,-48l0,-352c0,-26.509 21.489,-47.999 48,-48l352,0c26.511,0.001 48,21.491 48,48l0,352c0,26.51 -21.489,47.999 -48,48Zm-95.732,-351.086c-24.583,-11.276 -51.339,-16.914 -80.268,-16.914c-28.929,0 -55.685,5.638 -80.268,16.914c-24.583,11.276 -44.018,26.609 -58.303,45.999c-14.286,19.39 -21.429,40.54 -21.429,63.45c0,22.194 6.756,42.747 20.268,61.66c13.512,18.913 31.756,34.096 54.732,45.551c-10.119,34.127 -15.536,53.517 -16.25,58.17l0,0.716c0,0.477 0.119,1.014 0.357,1.611c0.238,0.597 0.595,1.074 1.072,1.432c1.19,0.596 2.44,0.656 3.75,0.179c2.738,-0.358 25.297,-15.273 67.678,-44.746c9.762,1.312 19.226,1.969 28.393,1.969c29.048,0 55.833,-5.638 80.357,-16.914c24.524,-11.276 43.929,-26.639 58.214,-46.089c14.286,-19.449 21.429,-40.629 21.429,-63.539c0,-22.91 -7.143,-44.06 -21.429,-63.45c-14.285,-19.39 -33.72,-34.723 -58.303,-45.999Zm37.411,145.335c0,-2.446 -0.774,-4.624 -2.322,-6.533c-0.714,-1.074 -8.214,-11.156 -22.5,-30.248c6.905,-7.04 13.869,-14.08 20.893,-21.12c1.786,-1.79 2.887,-3.908 3.304,-6.354c0.416,-2.446 -0.268,-4.743 -2.054,-6.891c-2.024,-1.909 -4.196,-2.685 -6.518,-2.327c-2.321,0.358 -4.494,1.551 -6.518,3.58c-0.357,0.358 -1.904,1.939 -4.643,4.743c-2.738,2.804 -6.279,6.413 -10.625,10.828c-4.345,4.415 -8.184,8.353 -11.517,11.813l0,-20.762c0,-2.506 -0.744,-4.832 -2.233,-6.98c-1.488,-2.148 -3.541,-3.222 -6.16,-3.222c-2.619,0 -4.643,0.955 -6.072,2.864c-1.428,1.909 -2.143,4.355 -2.143,7.338l0,60.855c0,2.983 0.715,5.429 2.143,7.338c1.429,1.909 3.453,2.864 6.072,2.864c2.619,0 4.672,-1.074 6.16,-3.222c1.489,-2.148 2.233,-4.474 2.233,-6.98l0,-16.288c0.476,-0.477 1.369,-1.402 2.678,-2.774c1.31,-1.372 2.381,-2.476 3.214,-3.311c7.858,10.739 14.881,20.225 21.072,28.458c1.667,2.267 3.601,3.729 5.803,4.385c2.203,0.657 4.435,0.15 6.697,-1.521c2.024,-1.909 3.036,-4.087 3.036,-6.533Zm-167.143,-8.323l31.071,0c1.31,4.296 2.262,7.1 2.857,8.413c0.596,1.193 1.25,2.386 1.965,3.579c0.714,1.194 2.023,2.357 3.928,3.49c1.905,1.134 3.869,1.343 5.893,0.627c4.405,-1.671 5.774,-5.907 4.107,-12.708c-0.476,-1.551 -3.839,-10.828 -10.089,-27.832c-6.25,-17.003 -9.851,-26.698 -10.804,-29.085c-3.214,-7.756 -7.619,-11.634 -13.214,-11.634c-6.071,0 -10.774,3.878 -14.107,11.634c-0.953,2.029 -4.583,11.903 -10.893,29.622c-6.31,17.719 -9.583,26.818 -9.821,27.295c-0.834,1.074 -1.042,3.043 -0.625,5.907c0.416,2.863 1.696,4.832 3.839,5.906c2.381,1.074 4.702,1.193 6.964,0.358c2.262,-0.835 3.81,-2.088 4.643,-3.759l4.286,-11.813Zm93.75,16.109l-25.715,0c-0.119,0 -0.327,-0.03 -0.625,-0.09c-0.297,-0.059 -0.506,-0.089 -0.625,-0.089c-0.119,0 -0.327,0.03 -0.625,0.089c-0.297,0.06 -0.506,0.09 -0.625,0.09c-2.619,0 -4.642,-0.955 -6.071,-2.864c-1.429,-1.909 -2.143,-4.355 -2.143,-7.338l0,-60.855c0,-2.983 0.714,-5.429 2.143,-7.338c1.429,-1.909 3.452,-2.864 6.071,-2.864c2.619,0 4.673,1.074 6.161,3.222c1.488,2.148 2.232,4.474 2.232,6.98l0,54.053l19.822,0c2.857,0 5.238,0.746 7.143,2.238c1.904,1.491 2.857,3.55 2.857,6.175c0,2.625 -1.042,4.713 -3.125,6.264c-2.084,1.551 -4.374,2.327 -6.875,2.327Zm-125.357,-65.15l0,54.948c0,2.506 -0.744,4.832 -2.233,6.98c-1.488,2.148 -3.541,3.222 -6.16,3.222c-2.619,0 -4.643,-0.955 -6.072,-2.864c-1.428,-1.909 -2.143,-4.355 -2.143,-7.338l0,-54.948l-14.107,0c-2.381,0 -4.524,-0.716 -6.428,-2.148c-1.905,-1.432 -2.857,-3.52 -2.857,-6.265c0,-2.744 0.892,-4.713 2.678,-5.906c1.786,-1.193 3.691,-1.79 5.714,-1.79l46.429,0c1.786,0 3.631,0.806 5.536,2.416c1.904,1.611 2.857,3.61 2.857,5.996c0,2.387 -1.042,4.266 -3.125,5.638c-2.083,1.373 -4.077,2.059 -5.982,2.059l-14.107,0Zm47.321,0.895l-10.893,32.038l21.607,0l-10.714,-32.038Z"></path></svg>

<svg width="448" height="512" viewBox="0 0 448 512" fill="none" xmlns="http://www.w3.org/2000/svg">
<path d="M142.929 216.885V271.833C142.929 274.339 142.185 276.665 140.696 278.813C139.208 280.961 137.155 282.035 134.536 282.035C131.917 282.035 129.893 281.08 128.464 279.171C127.036 277.262 126.321 274.816 126.321 271.833V216.885H112.214C109.833 216.885 107.69 216.169 105.786 214.737C103.881 213.305 102.929 211.217 102.929 208.472C102.929 205.728 103.821 203.759 105.607 202.566C107.393 201.373 109.298 200.776 111.321 200.776H157.75C159.536 200.776 161.381 201.582 163.286 203.192C165.19 204.803 166.143 206.802 166.143 209.188C166.143 211.575 165.101 213.454 163.018 214.826C160.935 216.199 158.94 216.885 157.036 216.885H142.929Z" fill="black"/>
<path fill-rule="evenodd" clip-rule="evenodd" d="M224.357 269.327C226.024 276.128 224.655 280.364 220.25 282.035C218.226 282.751 216.262 282.542 214.357 281.408C212.452 280.275 211.143 279.112 210.429 277.918C209.714 276.725 209.06 275.532 208.464 274.339C207.869 273.026 206.917 270.222 205.607 265.926H174.536L170.25 277.739C169.417 279.41 167.869 280.663 165.607 281.498C163.345 282.333 161.024 282.214 158.643 281.14C156.5 280.066 155.22 278.097 154.804 275.234C154.387 272.37 154.595 270.401 155.429 269.327C155.667 268.85 158.94 259.751 165.25 242.032C171.56 224.313 175.19 214.439 176.143 212.41C179.476 204.654 184.179 200.776 190.25 200.776C195.845 200.776 200.25 204.654 203.464 212.41C204.417 214.797 208.018 224.492 214.268 241.495C220.518 258.499 223.881 267.776 224.357 269.327ZM190.25 217.78L179.357 249.818H200.964L190.25 217.78Z" fill="black"/>
<path d="M275.161 279.708C273.077 281.259 270.786 282.035 268.286 282.035H242.571C242.452 282.035 242.244 282.005 241.946 281.945C241.649 281.886 241.44 281.856 241.321 281.856C241.202 281.856 240.994 281.886 240.696 281.945C240.399 282.005 240.19 282.035 240.071 282.035C237.452 282.035 235.429 281.08 234 279.171C232.571 277.262 231.857 274.816 231.857 271.833V210.978C231.857 207.995 232.571 205.549 234 203.64C235.429 201.731 237.452 200.776 240.071 200.776C242.69 200.776 244.744 201.85 246.232 203.998C247.72 206.146 248.464 208.472 248.464 210.978V265.031H268.286C271.143 265.031 273.524 265.777 275.429 267.269C277.333 268.76 278.286 270.819 278.286 273.444C278.286 276.069 277.244 278.157 275.161 279.708Z" fill="black"/>
<path d="M341.679 274.249C341.679 276.695 340.667 278.873 338.643 280.782C336.381 282.453 334.149 282.96 331.946 282.303C329.744 281.647 327.81 280.185 326.143 277.918C319.952 269.685 312.929 260.199 305.071 249.46C304.238 250.295 303.167 251.399 301.857 252.771C300.548 254.143 299.655 255.068 299.179 255.545V271.833C299.179 274.339 298.435 276.665 296.946 278.813C295.458 280.961 293.405 282.035 290.786 282.035C288.167 282.035 286.143 281.08 284.714 279.171C283.286 277.262 282.571 274.816 282.571 271.833V210.978C282.571 207.995 283.286 205.549 284.714 203.64C286.143 201.731 288.167 200.776 290.786 200.776C293.405 200.776 295.458 201.85 296.946 203.998C298.435 206.146 299.179 208.472 299.179 210.978V231.74C302.512 228.28 306.351 224.342 310.696 219.927C315.042 215.512 318.583 211.903 321.321 209.099C324.06 206.295 325.607 204.714 325.964 204.356C327.988 202.327 330.161 201.134 332.482 200.776C334.804 200.418 336.976 201.194 339 203.103C340.786 205.251 341.47 207.548 341.054 209.994C340.637 212.44 339.536 214.558 337.75 216.348C330.726 223.388 323.762 230.428 316.857 237.468C331.143 256.56 338.643 266.642 339.357 267.716C340.905 269.625 341.679 271.803 341.679 274.249Z" fill="black"/>
<path fill-rule="evenodd" clip-rule="evenodd" d="M48 32C21.4903 32 0 53.4903 0 80V432C0 458.51 21.4903 480 48 480H400C426.51 480 448 458.51 448 432V80C448 53.4903 426.51 32 400 32H48ZM304.268 128.914C279.685 117.638 252.929 112 224 112C195.071 112 168.315 117.638 143.732 128.914C119.149 140.19 99.7143 155.523 85.4286 174.913C71.1429 194.303 64 215.453 64 238.363C64 260.557 70.756 281.11 84.2679 300.023C97.7798 318.936 116.024 334.119 139 345.574C128.881 379.701 123.464 399.091 122.75 403.744V404.46C122.75 404.937 122.869 405.474 123.107 406.071C123.345 406.668 123.702 407.145 124.179 407.503C125.369 408.099 126.619 408.159 127.929 407.682C130.667 407.324 153.226 392.409 195.607 362.936C205.369 364.248 214.833 364.905 224 364.905C253.048 364.905 279.833 359.267 304.357 347.991C328.881 336.715 348.286 321.352 362.571 301.902C376.857 282.453 384 261.273 384 238.363C384 215.453 376.857 194.303 362.571 174.913C348.286 155.523 328.851 140.19 304.268 128.914Z" fill="black"/>
</svg>
